X: 372
T: Ma yanxishan
L: 1/16
M: 2/4
K: G
A2 A d B d B A [I:setbarnb 1]| 
d2 G2A4 | 
d2 G2 E G E D | 
E D C2D4 | 
D2> E2 D2 B,2 | 
D4G3 A | 
B2A6 | 
A B A G E2 D2 | 
C2 D2 G2 E2 | 
D E D CD4 |]

@@@ Tune index: 9246
